X:1
T:Title
%%score { ( 1 3 ) | ( 2 4 5 ) }
L:1/8
M:3/4
K:G
V:1 treble nm="Grand Piano"
V:3 treble 
V:2 bass 
V:4 bass 
V:5 bass 
V:1
 z2 z2[Q:1/4=100] [B,D]>[B,D] | [B,D]3 [CE] [CE][B,D] | [B,D] [B,G]3 E>E | E3 E [^CA][EG] | %4
 [DF]4 [^DF]>[DF] | [^DB]3 [FA] [EG][A,DF] | [G,E] [G,EG]3 [G,DF]>E | z2 z2 F2 |[M:2/4] [B,DG]4 | %9
[M:1/4] d>d |[M:3/4] d3 d ed | B d3 [Fc]>[Fc] | [Ac]3 [GB] [FA][Ac] | B4 d>c | B [DB]3 [DA][DG] | %15
 z2 z2 z E | [G,B,D][B,DG] [DGB]3 [CFA] |[M:2/4] [B,G]4 |] %18
V:2
 z2 z2 [G,,G,]>[G,,G,] | [G,,G,]3 [G,,G,] [G,,G,][G,,G,] | [G,,G,] [G,,G,]3 [C,G,C]>[C,G,C] | %3
 [C,G,C]3 [C,G,C] [A,,A,][A,,A,] | [D,A,]4 [B,,B,]>[B,,B,] | [B,,B,]3 [B,,B,] [B,,B,]B,, | %6
 C, C,3 C,>[C,G,C] | [G,B,]2 [B,D]2 .[D,A,D]2 |[M:2/4] G,,4 |[M:1/4][K:treble] [G,B,D]>[G,B,D] | %10
[M:3/4] [G,B,G]3 [G,B,G] [G,CG][G,B,G] | [G,DG] [G,B,G]3[K:bass] [D,A,]>[D,A,] | %12
 [D,D]3 [D,D] [D,D][D,D] | [G,DG]4 [G,B,D]>[K:bass][F,A,D] | [G,D] [G,,G,]3 [A,,F,][B,,G,] | %15
 z2 z2 z C | D,D, D,3 D, |[M:2/4] G,,4 |] %18
V:3
 x6 | x6 | x6 | x6 | x6 | x6 | x6 | D2 G2 z C |[M:2/4] x4 |[M:1/4] x2 |[M:3/4] x6 | x6 | x6 | x6 | %14
 x6 | [DF] [CE]3 .[EG]>G, | x6 |[M:2/4] x4 |] %18
V:4
 x6 | x6 | x6 | x6 | x6 | x6 | x6 | D,4 z2 |[M:2/4] x4 |[M:1/4][K:treble] x2 |[M:3/4] x6 | %11
 x4[K:bass] x2 | x6 | x11/2[K:bass] x/ | x6 | z2 z2 [C,G,]2 | x6 |[M:2/4] x4 |] %18
V:5
 x6 | x6 | x6 | x6 | x6 | x6 | x6 | x6 |[M:2/4] x4 |[M:1/4][K:treble] x2 |[M:3/4] x6 | %11
 x4[K:bass] x2 | x6 | x11/2[K:bass] x/ | x6 | [C,G,] [C,G,]3 z z/ C,/ | x6 |[M:2/4] x4 |] %18

